build/img/led-display.svg

<svg xmlns="http://www.w3.org/2000/svg" viewBox="0 0 19.84 19.84"><path d="M11.08 10.37v5.82m0-12.38v5.82m7.8.74v5.82m0-12.38v5.82m-7.14-6.09h6.27m-6.27 6.38h6.27m-6.27 6.38h6.27M.96 10.37v5.82m0-12.38v5.82m7.8.74v5.82m0-12.38v5.82M1.62 3.54h6.27M1.62 9.92h6.27M1.62 16.3h6.27" fill="none" stroke="#1d1d1b" stroke-width=".5" stroke-miterlimit="10"/></svg>

<?xml version="1.0" encoding="utf-8"?>
<!-- Generator: Adobe Illustrator 23.0.3, SVG Export Plug-In . SVG Version: 6.00 Build 0)  -->
<svg version="1.1" id="Слой_1" xmlns="http://www.w3.org/2000/svg" xmlns:xlink="http://www.w3.org/1999/xlink" x="0px" y="0px"
	 viewBox="0 0 19.84 19.84" style="enable-background:new 0 0 19.84 19.84;" xml:space="preserve">
<style type="text/css">
	.st0{fill:none;stroke:#1D1D1B;stroke-width:0.5;stroke-miterlimit:10;}
</style>
<path class="st0" d="M11.08,10.37v5.82 M11.08,3.81v5.82 M18.88,10.37v5.82 M18.88,3.81v5.82 M11.74,3.54h6.27 M11.74,9.92h6.27
	 M11.74,16.3h6.27 M0.96,10.37v5.82 M0.96,3.81v5.82 M8.76,10.37v5.82 M8.76,3.81v5.82 M1.62,3.54h6.27 M1.62,9.92h6.27 M1.62,16.3
	h6.27"/>
</svg>
